X:1
T:Title
%%score { ( 1 3 ) | ( 2 4 ) }
L:1/8
M:4/4
K:Bb
V:1 treble nm="Grand Piano"
V:3 treble 
V:2 bass 
V:4 bass 
V:1
 z4 z2[Q:1/4=100] [B,D]>[CE] | [DF]>[DF] [DF]>[EG] [DF]>[CE] [B,D]>[DF] | %2
 [DB]>[DB] [DB]>[Ec] [DB]>[DF] [DB]>[Ec] | [Fd]>[Ec] [DB]>[FA] [Gc]>[GB] [FA]>[EG] | %4
 [DF]6 [EG]>[DF] | E>c c>d c>A G>F | d>d d>e [Fd]>[Fc] [FB]>[FA] | [EG]>[Ge] [Gd]>c B>A G>A | %8
 [DB]6 z2 | d4 F4 | [B,DG]2 [B,DB]2 [CEB]2 [CEA]2 | [Ge]>[Ge] G>G z z/ C/ A,>A, | z2 [Fd]2 z4 | %13
 f>f f>d e2 d2 | [Gc]>[Gc] [Gc]>[EG] [=Ec]2 [EB]2 | A>A A>G F>e d>c |[M:3/4] [DB]6 |] %17
V:2
 z4 z2 [B,,F,]>[B,,F,] | [B,,B,]>[B,,B,] [B,,B,]>[B,,B,] [B,,B,]>[B,,F,] [B,,F,]>[B,,B,] | %2
 [B,,F,]>[B,,F,] [B,,F,]>[B,,F,] [B,,F,]>[B,,B,] [B,,B,]>[B,,B,] | %3
 [B,,B,]>[B,,B,] [B,,B,]>[D,B,] [E,B,]>[E,B,] [E,B,]>[E,B,] | [B,,B,]6 [B,,B,]>[B,,B,] | %5
 [F,A,C]>[F,A,E] [F,A,E]>[F,A,F] [F,A,E]>[F,CE][K:treble] [G,B,E]>[A,C] | %6
 [B,F]>[B,F] [B,F]>[B,G][K:bass] [B,,B,]>[C,A,] [D,B,]>[D,B,] | %7
 [E,B,]>[E,B,] [E,B,]>[E,G,E] [F,E]>[F,E] [F,CE]>[F,CE] | [B,,B,]6 z2 | %9
 [B,,B,]>[B,,B,] [B,,B,]>[B,,B,] [B,,B,]2 B,,2 | z z/ A/ z z/[K:treble] c/[K:bass] F,2 F,2 | %11
 z4 [F,C]2 z2 | B,>B, [F,B,]2 [B,,B,]4 | [B,DF]>[B,DF] [B,DF]>[B,F] [A,CF]2 [B,F]2 | %14
 [E,B,]>[E,B,] [E,B,]>[E,B,] [C,B,]2 [C,C]2 | %15
 [F,CE]>[F,CE] [F,CE]>[F,B,E] [F,A,E]>[F,A,G] [F,A,F]>[F,A,E] |[M:3/4] [B,,B,]6 |] %17
V:3
 x8 | x8 | x8 | x8 | x8 | x8 | x8 | x8 | x8 | F>F F>F D2 [B,D]2 | x8 | z4 A2 [EG]2 | %12
 [DF]2 z z/ [D,B,]/ [Fd]4 | x8 | x8 | x8 |[M:3/4] x6 |] %17
V:4
 x8 | x8 | x8 | x8 | x8 | x6[K:treble] x2 | x4[K:bass] x4 | x8 | x8 | x8 | %10
 B,,2 B,,2[K:treble][K:bass] z4 | [F,A,]>[F,A,] [F,A,E]>[F,A,E] F->[F,F] F,>F, | x8 | x8 | x8 | %15
 x8 |[M:3/4] x6 |] %17

